!!!COM:	Bach, Johann Sebastian
!!!CDT:	1685/02/21/-1750/07/28/
!!!OTL@@DE:	O Herzensangst, o Bangigkeit
!!!SCT:	BWV 400
!!!PC#:	173
!!!AGN:	chorale
**kern	**kern	**kern	**kern
*ICvox	*ICvox	*ICvox	*ICvox
*Ibass	*Itenor	*Ialto	*Isoprn
*I"Bass	*I"Tenor	*I"Alto	*I"Soprano
*clefF4	*clefGv2	*clefG2	*clefG2
*k[b-e-a-]	*k[b-e-a-]	*k[b-e-a-]	*k[b-e-a-]
*E-:	*E-:	*E-:	*E-:
*M3/4	*M3/4	*M3/4	*M3/4
*MM100	*MM100	*MM100	*MM100
=1-	=1-	=1-	=1-
4E-	4G	4e-	4b-
4E-	4B-	4e-	4g
4AA-	8A-L	4e-	4cc
.	8GJ	.	.
=2	=2	=2	=2
2AA-;	2F;	2d;	2b-;
4G	4B-	4e-	4e-
=3	=3	=3	=3
8FL	2A-	8dL	2f
8E-J	.	8cJ	.
4D	.	2B-	.
[4E-	4G	.	4g
=4	=4	=4	=4
4E-]	4c	2f	2a-
8DL	4B-	.	.
8CJ	.	.	.
4D	4B-	4f	4b-
=5	=5	=5	=5
4E-	4B-	4e-	4g
2EE-;	2G;	2B-;	2e-;
=6	=6	=6	=6
4BB-	4B-	4d	4f
8E-L	4B-	4e-	4g
8DJ	.	.	.
4C	4c	4e-	4a
=7	=7	=7	=7
2BB-;	2F;	2d;	2b-;
4B-	4B-	4f	4dd
=8	=8	=8	=8
4A	4c	4f	4cc
4A-	4B-	4f	4dd
4G	[4B-	4e-	4ee-
=9	=9	=9	=9
4F	2B-]	4f	4dd
4E-	.	4g	2cc
4F	4A	8fL	.
.	.	8e-J	.
=10	=10	=10	=10
2.BB-;	2.F;	2.d;	2.b-;
=11	=11	=11	=11
8B-L	4d	4f	4b-
8A-X	.	.	.
8G	4d	4g	4b
8FJ	.	.	.
8E-L	4G	8gL	4b
8DJ	.	8fJ	.
=12	=12	=12	=12
2C;	2G;	2e-;	2cc;
4BB	4d	4g	4dd
=13	=13	=13	=13
4.C	4c	4g	4.ee-
.	4c	4g	.
8BB-X	.	.	8ee-
4AA-	4c	4f	4ff
=14	=14	=14	=14
4GG	2c	4g	4ee-
4FF	.	4a-	2dd
4GG	4B	8gL	.
.	.	8fJ	.
=15	=15	=15	=15
2C;	2G;	2e-;	2cc;
4GG	4d-	4e-	4b-
=16	=16	=16	=16
2AA-	8cL	4e-	4.cc
.	8B-J	.	.
.	4c	4f	.
.	.	.	8ddnX
8GGL	4B-	[4g	4ee-
8AA-J	.	.	.
=17	=17	=17	=17
2.BB-	2B-	4g]	2ee-
.	.	8fL	.
.	.	8e-J	.
.	4B-	8fL	4dd
.	.	8a-J	.
=18	=18	=18	=18
2.EE-;	2.B-;	2.g;	2.ee-;
==	==	==	==
*-	*-	*-	*-
!!!hum2abc: -Q ''
!!!title: @{PC#}. @{OTL@@DE}
!!!YOR1: 371 vierstimmige Choralges&auml;nge von Johann Sebastian Bach, 
!!!YOR2: 4th ed. by Alfred D&ouml;rffel (Leipzig: Breitkopf und H&auml;rtel, 
!!!YOR2: c.1875). 178 pp. Plate "V.A.10".  reprint: J.S. Bach, 371 Four-Part 
!!!YOR4: Chorales (New York: Associated Music Publishers, Inc., c.1940).
!!!SMS: B&H, 4th ed, Alfred D&ouml;rffel, c.1875, plate V.A.10
!!!EED:  Craig Stuart Sapp
!!!EEV:  2009/05/22
